svg/m/GB-UKM.svg

<svg fill="none" height="15" viewBox="0 0 20 15" width="20" xmlns="http://www.w3.org/2000/svg" xmlns:xlink="http://www.w3.org/1999/xlink"><mask id="a" height="15" maskUnits="userSpaceOnUse" width="20" x="0" y="0"><path d="m0 0h20v15h-20z" fill="#fff"/></mask><mask id="b" height="15" maskUnits="userSpaceOnUse" width="20" x="0" y="0"><path clip-rule="evenodd" d="m0 0v15h20v-15z" fill="#fff" fill-rule="evenodd"/></mask><mask id="c" height="15" maskUnits="userSpaceOnUse" width="20" x="0" y="0"><path d="m0 0h20v15h-20z" fill="#fff"/></mask><mask id="d" fill="#fff"><path clip-rule="evenodd" d="m12.3611-1.25h-4.72221v6.25h-8.87168v5h8.87168v6.25h4.72221v-6.25h8.9061v-5h-8.9061z" fill="#fff" fill-rule="evenodd"/></mask><g mask="url(#a)"><path clip-rule="evenodd" d="m0 0v15h20v-15z" fill="#2e42a5" fill-rule="evenodd"/><g mask="url(#b)"><g mask="url(#c)"><path d="m-2.22699 13.9284 4.40106 1.8613 17.92573-13.76604 2.3215-2.765926-4.7063-.622094-7.3115 5.93217-5.885 3.99689z" fill="#fff"/><path d="m-1.62445 15.2325 2.242134 1.0801 20.970016-17.311816h-3.1482z" fill="#f50100"/><path d="m22.2269 13.9284-4.401 1.8613-17.9258012-13.76604-2.3214588-2.765926 4.7063-.622094 7.31149 5.93217 5.88497 3.99689z" fill="#fff"/><path d="m22.0768 14.8643-2.2422 1.0802-8.9292-7.41214-2.64734-.82814-10.90277-8.436993h3.14822l10.89669 8.236743 2.8943.99302z" fill="#f50100"/><path clip-rule="evenodd" d="m12.3611-1.25h-4.72221v6.25h-8.87168v5h8.87168v6.25h4.72221v-6.25h8.9061v-5h-8.9061z" fill="#f50100" fill-rule="evenodd"/><path d="m7.63889-1.25v-1.25h-1.25v1.25zm4.72221 0h1.25v-1.25h-1.25zm-4.72221 6.25v1.25h1.25v-1.25zm-8.87168 0v-1.25h-1.25v1.25zm0 5h-1.25v1.25h1.25zm8.87168 0h1.25v-1.25h-1.25zm0 6.25h-1.25v1.25h1.25zm4.72221 0v1.25h1.25v-1.25zm0-6.25v-1.25h-1.25v1.25zm8.9061 0v1.25h1.25v-1.25zm0-5h1.25v-1.25h-1.25zm-8.9061 0h-1.25v1.25h1.25zm-4.72221-5h4.72221v-2.5h-4.72221zm1.25 5v-6.25h-2.5v6.25zm-10.12168 1.25h8.87168v-2.5h-8.87168zm1.2500019 3.75v-5h-2.5000019v5zm7.6216781-1.25h-8.87168v2.5h8.87168zm1.25 7.5v-6.25h-2.5v6.25zm3.47221-1.25h-4.72221v2.5h4.72221zm-1.25-5v6.25h2.5v-6.25zm10.1561-1.25h-8.9061v2.5h8.9061zm-1.25-3.75v5h2.5v-5zm-7.6561 1.25h8.9061v-2.5h-8.9061zm-1.25-7.5v6.25h2.5v-6.25z" fill="#fff" mask="url(#d)"/></g></g></g></svg>

<svg width="20" height="15" viewBox="0 0 20 15" fill="none" xmlns="http://www.w3.org/2000/svg">
<mask id="mask0" mask-type="alpha" maskUnits="userSpaceOnUse" x="0" y="0" width="20" height="15">
<rect width="20" height="15" fill="white"/>
</mask>
<g mask="url(#mask0)">
<path fill-rule="evenodd" clip-rule="evenodd" d="M0 0V15H20V0H0Z" fill="#2E42A5"/>
<mask id="mask1" mask-type="alpha" maskUnits="userSpaceOnUse" x="0" y="0" width="20" height="15">
<path fill-rule="evenodd" clip-rule="evenodd" d="M0 0V15H20V0H0Z" fill="white"/>
</mask>
<g mask="url(#mask1)">
<mask id="mask2" mask-type="alpha" maskUnits="userSpaceOnUse" x="0" y="0" width="20" height="15">
<rect width="20" height="15" fill="white"/>
</mask>
<g mask="url(#mask2)">
<path d="M-2.22699 13.9284L2.17407 15.7897L20.0998 2.02366L22.4213 -0.742266L17.715 -1.36436L10.4035 4.56781L4.5185 8.5647L-2.22699 13.9284Z" fill="white"/>
<path d="M-1.62445 15.2325L0.617684 16.3126L21.5877 -0.999216H18.4395L-1.62445 15.2325Z" fill="#F50100"/>
<path d="M22.2269 13.9284L17.8259 15.7897L-0.0999012 2.02366L-2.42136 -0.742266L2.28494 -1.36436L9.59643 4.56781L15.4814 8.5647L22.2269 13.9284Z" fill="white"/>
<path d="M22.0768 14.8643L19.8346 15.9445L10.9054 8.53236L8.25806 7.70422L-2.64471 -0.732773H0.50351L11.4002 7.50397L14.2945 8.49699L22.0768 14.8643Z" fill="#F50100"/>
<mask id="path-10-inside-1" fill="white">
<path fill-rule="evenodd" clip-rule="evenodd" d="M12.3611 -1.25H7.63889V5H-1.23279V10H7.63889V16.25H12.3611V10H21.2672V5H12.3611V-1.25Z"/>
</mask>
<path fill-rule="evenodd" clip-rule="evenodd" d="M12.3611 -1.25H7.63889V5H-1.23279V10H7.63889V16.25H12.3611V10H21.2672V5H12.3611V-1.25Z" fill="#F50100"/>
<path d="M7.63889 -1.25V-2.5H6.38889V-1.25H7.63889ZM12.3611 -1.25H13.6111V-2.5H12.3611V-1.25ZM7.63889 5V6.25H8.88889V5H7.63889ZM-1.23279 5V3.75H-2.48279V5H-1.23279ZM-1.23279 10H-2.48279V11.25H-1.23279V10ZM7.63889 10H8.88889V8.75H7.63889V10ZM7.63889 16.25H6.38889V17.5H7.63889V16.25ZM12.3611 16.25V17.5H13.6111V16.25H12.3611ZM12.3611 10V8.75H11.1111V10H12.3611ZM21.2672 10V11.25H22.5172V10H21.2672ZM21.2672 5H22.5172V3.75H21.2672V5ZM12.3611 5H11.1111V6.25H12.3611V5ZM7.63889 0H12.3611V-2.5H7.63889V0ZM8.88889 5V-1.25H6.38889V5H8.88889ZM-1.23279 6.25H7.63889V3.75H-1.23279V6.25ZM0.0172119 10V5H-2.48279V10H0.0172119ZM7.63889 8.75H-1.23279V11.25H7.63889V8.75ZM8.88889 16.25V10H6.38889V16.25H8.88889ZM12.3611 15H7.63889V17.5H12.3611V15ZM11.1111 10V16.25H13.6111V10H11.1111ZM21.2672 8.75H12.3611V11.25H21.2672V8.75ZM20.0172 5V10H22.5172V5H20.0172ZM12.3611 6.25H21.2672V3.75H12.3611V6.25ZM11.1111 -1.25V5H13.6111V-1.25H11.1111Z" fill="white" mask="url(#path-10-inside-1)"/>
</g>
</g>
</g>
</svg>
